X: 1
T: Mountain Dew
M: 4/4
L: 1/8
R: reel
K: Dmaj
d2|edBG AGED|GBAG d2>d2|edBG AGED|GBAA G2>d2|edGd edGd|edGA E2>d2|edBG AGED|GBAA G2>z2|
